X: 5184
T: Brisk Young Lads, The
R: jig
M: 6/8
K: Adorian
|:A2A Acd|edc B2A|~G3 A2c|dge dBG|
AcA Acd|edc Bcd|ed^c dBG|1 A3 A2c:|2 A3 A3||
|:ABA a2b|agf g3|~G3 B2G|dge dBG|
[1 ABA a2b|agf efa|g2e dBG|A3 A3:|
[2 A2A Acd|edc B2d|e2^c dBG|A3 A3||

